X:136
T:Wonder, The
R:hornpipe
C:James Hill (1811-1853), Northumberland
H:Originally written in Bb
D:De Danann
Z:id:hn-hornpipe-136
M:C|
L:1/8
K:G
(3DEF | GdBG FcAF | GABG D2GF | EGAB cBAG | Fd~d2 edcA |
GdBG FcAF | GABG D2GF | Eedc BAGF | A2G2 G2 :|
|: AG | FAd^c dBAG | FAd^c dfed | ^cdef ge^ce | d^cde d2=c2 |
BcBA ^GBe2 | ABA=G FAd2 | egfe (3ded (3cBA | GgdB G2 :|

